build/svg/cmd/sc_recsearch.svg

<?xml version="1.0" encoding="UTF-8" standalone="no"?>
<svg
   xmlns:dc="http://purl.org/dc/elements/1.1/"
   xmlns:cc="http://creativecommons.org/ns#"
   xmlns:rdf="http://www.w3.org/1999/02/22-rdf-syntax-ns#"
   xmlns:svg="http://www.w3.org/2000/svg"
   xmlns="http://www.w3.org/2000/svg"
   xmlns:sodipodi="http://sodipodi.sourceforge.net/DTD/sodipodi-0.dtd"
   xmlns:inkscape="http://www.inkscape.org/namespaces/inkscape"
   viewBox="0 0 16 16"
   version="1.1"
   id="svg4"
   sodipodi:docname="sc_recsearch.svg"
   inkscape:export-filename="/home/jupiter007/Libreoffice yaru theme fullcolor/build/cmd/sc_recsearch.png"
   inkscape:export-xdpi="95"
   inkscape:export-ydpi="95"
   inkscape:version="0.92.4 (5da689c313, 2019-01-14)"><metadata
   id="metadata10">
  <rdf:RDF>
    <cc:Work
       rdf:about="">
      <dc:format>image/svg+xml</dc:format>
      <dc:type
         rdf:resource="http://purl.org/dc/dcmitype/StillImage" />
    </cc:Work>
  </rdf:RDF>
</metadata>
<defs
   id="defs8" />
<sodipodi:namedview
   pagecolor="#ffffff"
   bordercolor="#666666"
   borderopacity="1"
   objecttolerance="10"
   gridtolerance="10"
   guidetolerance="10"
   inkscape:pageopacity="0"
   inkscape:pageshadow="2"
   inkscape:window-width="1920"
   inkscape:window-height="1011"
   id="namedview6"
   showgrid="false"
   inkscape:zoom="14.75"
   inkscape:cx="-0.30508475"
   inkscape:cy="8"
   inkscape:window-x="1920"
   inkscape:window-y="32"
   inkscape:window-maximized="1"
   inkscape:current-layer="svg4" />
/&gt;<path
   style="opacity:0.7;fill:#000000;fill-opacity:1;fill-rule:nonzero;stroke:none;stroke-width:0.001;stroke-linecap:butt;stroke-linejoin:round;stroke-miterlimit:4;stroke-dasharray:none;stroke-dashoffset:0;stroke-opacity:1"
   d="m 11.389086,3.6143977 c -2.1478823,-2.1478835 -5.6302897,-2.1478835 -7.7781733,0 -2.1478835,2.1478835 -2.1478836,5.6302908 0,7.7781713 1.7397058,1.735746 4.4198198,2.106672 6.5655963,0.908743 l 1.73324,1.73324 c 0.351536,0.351536 1.057898,0.356316 1.414214,0 l 0.707106,-0.707106 c 0.35405,-0.35405 0.353702,-1.060513 0,-1.414215 L 12.292305,10.174469 C 13.48883,8.0312222 13.120293,5.3545438 11.389086,3.6143977 Z"
   id="path835"
   inkscape:connector-curvature="0"
   sodipodi:nodetypes="cscccccccc" />
<path
   style="opacity:1;fill:#c8c4b7;fill-opacity:1;fill-rule:nonzero;stroke:none;stroke-width:1.41428578;stroke-linecap:butt;stroke-linejoin:bevel;stroke-miterlimit:4;stroke-dasharray:none;stroke-dashoffset:0;stroke-opacity:1"
   d="M 7.5206621,3.024148 A 4.5,4.5 0 0 0 3.0206629,7.5241472 4.5,4.5 0 0 0 7.5206631,12.024145 4.5,4.5 0 0 0 12.020662,7.5241482 4.5,4.5 0 0 0 7.5206621,3.024148 Z m 0,1 a 3.5,3.5 0 0 1 3.4999989,3.5 A 3.5,3.5 0 0 1 7.5206631,11.024143 3.5,3.5 0 0 1 4.020663,7.524147 3.5,3.5 0 0 1 7.5206621,4.024148 Z"
   id="path828"
   inkscape:connector-curvature="0" />
<circle
   style="opacity:1;fill:#fffefd;fill-opacity:1;fill-rule:nonzero;stroke:none;stroke-width:1.10000002;stroke-linecap:butt;stroke-linejoin:bevel;stroke-miterlimit:4;stroke-dasharray:none;stroke-dashoffset:0;stroke-opacity:1"
   id="path837"
   cx="7.5206623"
   cy="7.5241451"
   r="3.5" />
<rect
   style="opacity:1;fill:#c8c4b7;fill-opacity:1;fill-rule:nonzero;stroke:none;stroke-width:1.10000002;stroke-linecap:butt;stroke-linejoin:bevel;stroke-miterlimit:4;stroke-dasharray:none;stroke-dashoffset:0;stroke-opacity:1"
   id="rect845"
   width="4"
   height="1"
   x="14.345394"
   y="-0.49753514"
   ry="4.5e-08"
   transform="rotate(45)" />
</svg>

<svg xmlns="http://www.w3.org/2000/svg" viewBox="0 0 16 16">/&gt;<path d="M11.39 3.614a5.5 5.5 0 00-7.78 7.779 5.5 5.5 0 006.567.908l1.733 1.734c.351.351 1.058.356 1.414 0l.707-.708c.354-.354.354-1.06 0-1.414l-1.739-1.739a5.5 5.5 0 00-.903-6.56z" opacity=".7"/><path d="M7.52 3.024a4.5 4.5 0 00-4.5 4.5 4.5 4.5 0 004.5 4.5 4.5 4.5 0 004.5-4.5 4.5 4.5 0 00-4.5-4.5zm0 1a3.5 3.5 0 013.5 3.5 3.5 3.5 0 01-3.5 3.5 3.5 3.5 0 01-3.5-3.5 3.5 3.5 0 013.5-3.5z" fill="#c8c4b7"/><circle cx="7.521" cy="7.524" r="3.5" fill="#fffefd"/><rect width="4" height="1" x="14.345" y="-.498" ry="0" transform="rotate(45)" fill="#c8c4b7"/></svg>
